resources/svg/centos.svg

<svg xmlns="http://www.w3.org/2000/svg" viewBox="0 0 24 24" fill="currentColor"><path fill="currentColor" fill-rule="evenodd" d="M5.1609863,6.25070841 L3.24873581,8.1633816 L3.24873581,3.22722505 L8.18367123,3.22722505 L6.23953033,5.17169472 L6.093182,5.31809002 L6.23953033,5.46453229 L10.7544892,9.98066536 L10.7544892,10.7189824 L9.92411742,10.7189824 L5.45678278,6.25066145 L5.30719374,6.10102544 L5.1609863,6.25070841 L5.1609863,6.25070841 Z M10.7545362,9.39193738 L10.7545362,3.22722505 L8.77239922,3.22722505 L6.68190998,5.31813699 L10.7545362,9.39193738 L10.7545362,9.39193738 Z M5.30728767,6.6930411 L3.24873581,8.75225049 L3.24873581,10.7190294 L9.33224266,10.7190294 L5.30728767,6.6930411 L5.30728767,6.6930411 Z M13.2714364,9.36319374 L17.3154599,5.31809002 L15.1964149,3.19848141 L13.2714364,3.19848141 L13.2714364,9.36319374 L13.2714364,9.36319374 Z M17.9071937,5.31809002 L17.7576047,5.46453229 L13.2713894,9.95516243 L13.2713894,10.7189824 L14.0572368,10.7189824 L18.5340117,6.24108023 L18.680454,6.09463796 L18.8299022,6.24108023 L20.7899648,8.20147162 L20.7899648,3.19852838 L15.785002,3.19852838 L17.7576047,5.17174168 L17.9071937,5.31809002 L17.9071937,5.31809002 Z M11.1714129,2.80720157 L11.1714129,3.01723679 L11.1714129,9.80886106 L11.998638,10.636274 L12.8545127,9.78011742 L12.8545127,2.99168689 L12.8545127,2.78155773 L13.064454,2.78155773 L14.7794912,2.78155773 L11.998638,-1.77635684e-15 L9.19223483,2.80720157 L10.9613777,2.80720157 L11.1714129,2.80720157 L11.1714129,2.80720157 Z M14.6490176,10.7190294 L20.7900587,10.7190294 L20.7900587,8.79358121 L18.6805479,6.68355382 L14.6490176,10.7190294 L14.6490176,10.7190294 Z M10.6241096,12.011225 L9.75231311,11.1391468 L3.03870059,11.1391468 L2.83190607,11.1391468 L2.83190607,10.9291115 L2.83190607,9.16917417 L0,12.0015499 L2.8318591,14.8342544 L2.8318591,13.0167358 L2.8318591,12.8101292 L3.03865362,12.8101292 L9.82539335,12.8101292 L10.6241096,12.011225 L10.6241096,12.011225 Z M13.2714364,14.6909589 L13.2714364,20.747225 L15.2345049,20.747225 L17.2803757,18.7008376 L13.2714364,14.6909589 L13.2714364,14.6909589 Z M5.31691585,17.3197808 L9.40861057,13.226865 L3.24873581,13.226865 L3.24873581,15.2508493 L5.31691585,17.3197808 L5.31691585,17.3197808 Z M18.6805479,17.3197808 L20.7900587,15.2098474 L20.7900587,13.226865 L14.5918121,13.226865 L18.6805479,17.3197808 L18.6805479,17.3197808 Z M21.2099413,14.789589 L23.9970881,12.0015969 L21.2099413,9.21365166 L21.2099413,10.9291585 L21.2099413,11.1391937 L20.9997652,11.1391937 L14.229135,11.1391937 L13.3667319,12.0015969 L14.1750294,12.8101761 L20.9998121,12.8101761 L21.2099883,12.8101761 L21.2099883,13.0167828 L21.2099883,14.789589 L21.2099413,14.789589 Z M18.6805479,17.9083679 L18.5341057,17.7623014 L14.0000783,13.2269119 L13.2714364,13.2269119 L13.2714364,14.1022309 L17.7226614,18.5543953 L17.8689159,18.7008845 L17.7226614,18.8504736 L15.8261918,20.747319 L20.7900117,20.747319 L20.7900117,15.8015342 L18.8299491,17.7622544 L18.6805479,17.9083679 L18.6805479,17.9083679 Z M12.8545127,21.1643836 L12.8545127,20.9542544 L12.8545127,14.2738004 L11.9827162,13.4020509 L11.184,14.2005793 L11.184,20.9542544 L11.184,21.1643836 L10.9741526,21.1643836 L9.14461057,21.1643836 L11.9827162,24 L14.8177221,21.1643836 L13.064407,21.1643836 L12.8545127,21.1643836 L12.8545127,21.1643836 Z M6.09322896,18.7008376 L6.2395773,18.5543483 L10.7672642,14.0256282 L10.7672642,13.226865 L9.99733855,13.226865 L5.46321722,17.7622544 L5.31691585,17.9083209 L5.17047358,17.7622544 L3.24873581,15.8398121 L3.24873581,20.7471781 L8.13590607,20.7471781 L6.2395773,18.8503327 L6.09322896,18.7008376 L6.09322896,18.7008376 Z M10.7672642,14.6176908 L6.68190998,18.7008376 L8.72768689,20.747225 L10.7672642,20.747225 L10.7672642,14.6176908 L10.7672642,14.6176908 Z"/></svg>

<svg viewBox="0 0 24 24"><path fill="currentColor" fill-rule="evenodd" d="M5.161 6.25L3.249 8.164V3.227h4.935L6.24 5.172l-.147.146l.147.147l4.514 4.516v.738h-.83L5.457 6.251l-.15-.15l-.146.15zm5.594 3.142V3.227H8.772l-2.09 2.091l4.073 4.074zM5.307 6.693L3.25 8.753v1.966h6.083L5.307 6.693zm7.964 2.67l4.044-4.045l-2.119-2.12h-1.925v6.165zm4.636-4.045l-.15.147l-4.486 4.49v.764h.786l4.477-4.478l.146-.146l.15.146l1.96 1.96V3.2h-5.005l1.973 1.973l.15.146zm-6.736-2.51v7l.828.828l.856-.856V2.782h1.924L12 0L9.192 2.807h1.98zm3.478 7.911h6.141V8.794l-2.11-2.11l-4.031 4.035zm-4.025 1.292l-.872-.872h-6.92V9.17L0 12.002l2.832 2.832V12.81H9.825l.8-.799zm2.647 2.68v6.056h1.964l2.045-2.046l-4.009-4.01zM5.317 17.32l4.092-4.093h-6.16v2.024l2.068 2.069zm13.364 0l2.11-2.11v-1.983h-6.2l4.09 4.093zm2.529-2.53l2.787-2.788l-2.787-2.788v1.925H14.23l-.863.863l.808.808h7.035v1.98zm-2.53 3.118l-.146-.146L14 13.227h-.729v.875l4.452 4.452l.146.147l-.146.15l-1.897 1.896h4.964v-4.945l-1.96 1.96l-.15.146zm-5.825 3.256v-6.89l-.872-.872l-.799.799v6.963h-2.04L11.984 24l2.835-2.836h-1.964zm-6.762-2.463l.147-.147l4.527-4.528v-.8h-.77l-4.534 4.536l-.146.146l-.147-.146L3.25 15.84v4.907h4.887L6.24 18.85l-.147-.15zm4.674-4.083L6.682 18.7l2.046 2.046h2.04v-6.13z"/></svg>
